assets/post/images/constellation12.svg

<svg xmlns="http://www.w3.org/2000/svg" width="1195" height="1129" overflow="hidden"><defs><clipPath id="a"><path d="M1480 109h1195v1129H1480z"/></clipPath></defs><g clip-path="url(#a)" transform="translate(-1480 -109)"><path fill="none" stroke="#000" stroke-miterlimit="8" stroke-width="9.167" d="M1480.5 688.5h1189.38m-629.38 549.44V134.5"/><path fill="#d74514" fill-rule="evenodd" d="M2365 325.5c0-24.025 19.7-43.5 44-43.5s44 19.475 44 43.5-19.7 43.5-44 43.5-44-19.476-44-43.5"/><text fill="#d74514" font-family="Microsoft YaHei,Microsoft YaHei_MSFontService,sans-serif" font-size="73" font-weight="700" transform="translate(2358.18 239)">0<tspan x="45.261" y="0">0</tspan></text><path fill-rule="evenodd" d="M2617.3 746.363h14.25l-.39 1.746c-.9.19-1.55.404-1.94.642q-.585.356-1.05 1.069c-.31.475-.63 1.218-.97 2.228-.33 1.01-.74 2.655-1.24 4.937l-6.1 27.66q-.465 2.103-.6 3.333-.15 1.229-.15 2.227 0 1.605.81 2.264c.53.439 1.43.707 2.69.802l-.4 1.746h-14.25l.39-1.746c.9-.143 1.58-.374 2.03-.695q.675-.482 1.14-1.337c.31-.57.6-1.265.86-2.085q.39-1.23 1.17-4.759l6.06-27.446c.53-2.376.79-4.289.79-5.739q0-1.675-.84-2.334c-.56-.44-1.44-.696-2.66-.767Z"/><text x="2607.96" y="788.936" fill-opacity="0" font-family="Arial,Arial_MSFontService,sans-serif" font-size="48.655">𝐼</text><path fill-rule="evenodd" d="M2112.57 151.2c-2.57 0-4.96.915-7.18 2.745-2.23 1.829-4.17 4.443-5.85 7.841q-2.52 5.097-3.9 11.193c-.93 4.063-1.39 7.651-1.39 10.764 0 7.343 2.67 11.015 8.02 11.015q4.95 0 9.09-4.616 4.125-4.617 6.66-12.779c1.69-5.442 2.53-10.527 2.53-15.256 0-3.541-.65-6.244-1.96-8.109s-3.31-2.798-6.02-2.798m.39-3.137c4.59 0 8.12 1.331 10.6 3.992 2.49 2.662 3.73 6.511 3.73 11.549 0 3.327-.52 7.046-1.57 11.157-1.04 4.111-2.48 7.741-4.31 10.889q-2.745 4.724-6.36 7.61-3.63 2.888-7.86 3.993.81 2.601 1.53 4.295c.47 1.129.93 2.043 1.37 2.744s.87 1.224 1.3 1.569c.43.344.86.576 1.28.695q.645.178 1.5.178c.9 0 1.82-.261 2.75-.784.92-.523 1.96-1.426 3.1-2.709l1.85 1.996q-2.85 3.101-5.31 4.384c-1.64.856-3.33 1.284-5.06 1.284q-2.955 0-4.83-1.319-1.875-1.32-3.24-4.206c-.92-1.925-1.81-4.444-2.66-7.557q-6.45-.357-9.84-4.277c-2.26-2.614-3.38-6.298-3.38-11.05q0-5.347 1.8-12.084c1.2-4.491 2.93-8.453 5.2-11.887q3.405-5.151 8.13-7.806c3.15-1.771 6.57-2.656 10.28-2.656"/><text x="2087.55" y="203.049" fill-opacity="0" font-family="Arial,Arial_MSFontService,sans-serif" font-size="62.841">𝑄</text><path fill="#d74514" fill-rule="evenodd" d="M1674 325.5c0-24.025 19.48-43.5 43.5-43.5s43.5 19.475 43.5 43.5-19.48 43.5-43.5 43.5-43.5-19.476-43.5-43.5"/><text fill="#d74514" font-family="Microsoft YaHei,Microsoft YaHei_MSFontService,sans-serif" font-size="73" font-weight="700" transform="translate(1666.95 239)">01</text><path fill="#d74514" fill-rule="evenodd" d="M2365 1018c0-24.301 19.7-44 44-44s44 19.699 44 44-19.7 44-44 44-44-19.7-44-44"/><text fill="#d74514" font-family="Microsoft YaHei,Microsoft YaHei_MSFontService,sans-serif" font-size="73" font-weight="700" transform="translate(2358.18 931)">11</text><path fill="#d74514" fill-rule="evenodd" d="M1674 1018c0-24.301 19.48-44 43.5-44s43.5 19.699 43.5 44-19.48 44-43.5 44-43.5-19.7-43.5-44"/><text fill="#d74514" font-family="Microsoft YaHei,Microsoft YaHei_MSFontService,sans-serif" font-size="73" font-weight="700" transform="translate(1666.95 931)">10</text></g></svg>

<svg width="1195" height="1129" xmlns="http://www.w3.org/2000/svg" xmlns:xlink="http://www.w3.org/1999/xlink" overflow="hidden"><defs><clipPath id="clip0"><rect x="1480" y="109" width="1195" height="1129"/></clipPath></defs><g clip-path="url(#clip0)" transform="translate(-1480 -109)"><path d="M1480.5 688.5 2669.88 688.5" stroke="#000000" stroke-width="9.16667" stroke-miterlimit="8" fill="none" fill-rule="evenodd"/><path d="M0 0 0.000360892 1103.44" stroke="#000000" stroke-width="9.16667" stroke-miterlimit="8" fill="none" fill-rule="evenodd" transform="matrix(1 0 0 -1 2040.5 1237.94)"/><path d="M2365 325.5C2365 301.475 2384.7 282 2409 282 2433.3 282 2453 301.475 2453 325.5 2453 349.524 2433.3 369 2409 369 2384.7 369 2365 349.524 2365 325.5Z" fill="#D74514" fill-rule="evenodd"/><text fill="#D74514" font-family="Microsoft YaHei,Microsoft YaHei_MSFontService,sans-serif" font-weight="700" font-size="73" transform="matrix(1 0 0 1 2358.18 239)">0<tspan font-size="73" x="45.2605" y="0">0</tspan></text><path d="M2617.3 746.363 2631.55 746.363 2631.16 748.109C2630.26 748.299 2629.61 748.513 2629.22 748.751 2628.83 748.988 2628.48 749.345 2628.17 749.82 2627.86 750.295 2627.54 751.038 2627.2 752.048 2626.87 753.058 2626.46 754.703 2625.96 756.985L2619.86 784.645C2619.55 786.047 2619.35 787.158 2619.26 787.978 2619.16 788.797 2619.11 789.54 2619.11 790.205 2619.11 791.275 2619.38 792.029 2619.92 792.469 2620.45 792.908 2621.35 793.176 2622.61 793.271L2622.21 795.017 2607.96 795.017 2608.35 793.271C2609.25 793.128 2609.93 792.897 2610.38 792.576 2610.83 792.255 2611.21 791.809 2611.52 791.239 2611.83 790.669 2612.12 789.974 2612.38 789.154 2612.64 788.334 2613.03 786.748 2613.55 784.395L2619.61 756.949C2620.14 754.573 2620.4 752.66 2620.4 751.21 2620.4 750.093 2620.12 749.315 2619.56 748.876 2619 748.436 2618.12 748.18 2616.9 748.109Z" fill-rule="evenodd"/><text fill="#000000" fill-opacity="0" font-family="Arial,Arial_MSFontService,sans-serif" font-size="48.6548" x="2607.96" y="788.936">𝐼</text><path d="M2112.57 151.2C2110 151.2 2107.61 152.115 2105.39 153.945 2103.16 155.774 2101.22 158.388 2099.54 161.786 2097.86 165.184 2096.56 168.915 2095.64 172.979 2094.71 177.042 2094.25 180.63 2094.25 183.743 2094.25 191.086 2096.92 194.758 2102.27 194.758 2105.57 194.758 2108.6 193.219 2111.36 190.142 2114.11 187.064 2116.33 182.805 2118.02 177.363 2119.71 171.921 2120.55 166.836 2120.55 162.107 2120.55 158.566 2119.9 155.863 2118.59 153.998 2117.28 152.133 2115.28 151.2 2112.57 151.2ZM2112.96 148.063C2117.55 148.063 2121.08 149.394 2123.56 152.055 2126.05 154.717 2127.29 158.566 2127.29 163.604 2127.29 166.931 2126.77 170.65 2125.72 174.761 2124.68 178.872 2123.24 182.502 2121.41 185.65 2119.58 188.799 2117.46 191.336 2115.05 193.26 2112.63 195.185 2110.01 196.516 2107.19 197.253 2107.73 198.987 2108.24 200.419 2108.72 201.548 2109.19 202.677 2109.65 203.591 2110.09 204.292 2110.53 204.993 2110.96 205.516 2111.39 205.861 2111.82 206.205 2112.25 206.437 2112.67 206.556 2113.1 206.675 2113.6 206.734 2114.17 206.734 2115.07 206.734 2115.99 206.473 2116.92 205.95 2117.84 205.427 2118.88 204.524 2120.02 203.241L2121.87 205.237C2119.97 207.304 2118.2 208.766 2116.56 209.621 2114.92 210.477 2113.23 210.905 2111.5 210.905 2109.53 210.905 2107.92 210.465 2106.67 209.586 2105.42 208.706 2104.34 207.304 2103.43 205.38 2102.51 203.455 2101.62 200.936 2100.77 197.823 2096.47 197.585 2093.19 196.16 2090.93 193.546 2088.67 190.932 2087.55 187.248 2087.55 182.496 2087.55 178.931 2088.15 174.904 2089.35 170.412 2090.55 165.921 2092.28 161.959 2094.55 158.525 2096.82 155.091 2099.53 152.489 2102.68 150.719 2105.83 148.948 2109.25 148.063 2112.96 148.063Z" fill-rule="evenodd"/><text fill="#000000" fill-opacity="0" font-family="Arial,Arial_MSFontService,sans-serif" font-size="62.8413" x="2087.55" y="203.049">𝑄</text><path d="M1674 325.5C1674 301.475 1693.48 282 1717.5 282 1741.52 282 1761 301.475 1761 325.5 1761 349.524 1741.52 369 1717.5 369 1693.48 369 1674 349.524 1674 325.5Z" fill="#D74514" fill-rule="evenodd"/><text fill="#D74514" font-family="Microsoft YaHei,Microsoft YaHei_MSFontService,sans-serif" font-weight="700" font-size="73" transform="matrix(1 0 0 1 1666.95 239)">01</text><path d="M2365 1018C2365 993.699 2384.7 974 2409 974 2433.3 974 2453 993.699 2453 1018 2453 1042.3 2433.3 1062 2409 1062 2384.7 1062 2365 1042.3 2365 1018Z" fill="#D74514" fill-rule="evenodd"/><text fill="#D74514" font-family="Microsoft YaHei,Microsoft YaHei_MSFontService,sans-serif" font-weight="700" font-size="73" transform="matrix(1 0 0 1 2358.18 931)">11</text><path d="M1674 1018C1674 993.699 1693.48 974 1717.5 974 1741.52 974 1761 993.699 1761 1018 1761 1042.3 1741.52 1062 1717.5 1062 1693.48 1062 1674 1042.3 1674 1018Z" fill="#D74514" fill-rule="evenodd"/><text fill="#D74514" font-family="Microsoft YaHei,Microsoft YaHei_MSFontService,sans-serif" font-weight="700" font-size="73" transform="matrix(1 0 0 1 1666.95 931)">10</text></g></svg>
